easyway/img/social/facebook.svg

<svg width="21" height="20" viewBox="0 0 21 20" fill="none" xmlns="http://www.w3.org/2000/svg">
<mask id="mask0" mask-type="alpha" maskUnits="userSpaceOnUse" x="6" y="3" width="9" height="14">
<path d="M13.9677 3.00273L12.0486 3C9.89317 3 8.49953 4.35244 8.49953 6.44528V8.03402H6.57066C6.40419 8.03402 6.26892 8.16198 6.26892 8.31949V10.6212C6.26892 10.7787 6.40418 10.9067 6.57066 10.9067H8.50012V16.7145C8.50012 16.872 8.63538 17 8.80186 17H11.3192C11.4857 17 11.621 16.872 11.621 16.7145L11.6204 10.9067H13.8764C14.0429 10.9067 14.1782 10.7788 14.1782 10.6212L14.1793 8.31949C14.1793 8.24402 14.1475 8.17129 14.0909 8.11769C14.0342 8.0641 13.9574 8.03402 13.8776 8.03402H11.6204V6.6876C11.6204 6.0401 11.7834 5.71196 12.6747 5.71196L13.9672 5.71142C14.1337 5.71142 14.2689 5.58345 14.2689 5.42594V3.28813C14.2689 3.13117 14.1342 3.0032 13.9678 3.00265L13.9677 3.00273Z" fill="#172ACB"/>
</mask>
<g mask="url(#mask0)">
<rect x="6.26892" y="3" width="8" height="14" fill="#1D1F22"/>
</g>
</svg>

<svg width="21" height="20" fill="none" xmlns="http://www.w3.org/2000/svg"><mask id="a" maskUnits="userSpaceOnUse" x="6" y="3" width="9" height="14"><path d="M13.968 3.003L12.048 3C9.894 3 8.5 4.352 8.5 6.445v1.589H6.57a.294.294 0 00-.301.285v2.302c0 .158.135.286.302.286H8.5v5.808c0 .157.134.285.3.285h2.518a.294.294 0 00.302-.285v-5.808h2.255a.294.294 0 00.302-.286l.001-2.302a.278.278 0 00-.088-.201.311.311 0 00-.213-.084H11.62V6.688c0-.648.163-.976 1.055-.976h1.292a.294.294 0 00.302-.286V3.288a.294.294 0 00-.301-.285z" fill="#172ACB"/></mask><g mask="url(#a)"><path fill="#1D1F22" d="M6.269 3h8v14h-8z"/></g></svg>
